X: 20265
T: Joe Ryan's
R: hornpipe
M: 4/4
K: Adorian
EAAB cBcA|dcde ~g2 (3efg|abag edcB|AGEF GBAG|
EAAB cBcA|dcde ~g2 (3efg|abge dged|c2 A2 A2:|
~g3 a gede|gage d2 (3Bcd|ed (3efg ~a3 g|abag ~e2 ed|
eged c2 AB|cedc B2 cB|ABce dcBc|AGEF GBAG|
EAAB cBcA|dcde ~g2 (3efg|abge dged|c2 A2 A2:|

